icon_installer/data/icons/scalable/actions/show-camera-flash-auto-symbolic.svg

<?xml version="1.0" encoding="UTF-8"?>
<svg height="16px" viewBox="0 0 16 16" width="16px" xmlns="http://www.w3.org/2000/svg">
    <g fill="#222222">
        <path d="m 11.144531 0.0078125 l -2.0625 5.9921875 h 1.585938 l 0.300781 -1.019531 h 2.09375 l 0.324219 1.019531 h 1.644531 l -1.976562 -5.9921875 z m 0.855469 1.5312495 l 0.648438 2.09375 h -1.273438 z m 0 0"/>
        <path d="m 6.96875 0 c -0.332031 0.0117188 -0.640625 0.1875 -0.816406 0.46875 l -5 8 c -0.105469 0.171875 -0.152344 0.355469 -0.152344 0.53125 v 1 h 3 v 5 c 0.003906 1.003906 1.316406 1.378906 1.847656 0.53125 l 5 -8 c 0.105469 -0.171875 0.152344 -0.355469 0.152344 -0.53125 h -3 v -6 c 0 -0.5625 -0.464844 -1.015625 -1.03125 -1 z m 0 0"/>
    </g>
</svg>

<svg xmlns="http://www.w3.org/2000/svg" width="16" height="16"><g fill="#222"><path d="M11.145.008 9.082 6h1.586l.3-1.02h2.095L13.387 6h1.644L13.055.008zM12 1.539l.648 2.094h-1.273zm0 0"/><path d="M6.969 0c-.332.012-.64.188-.817.469l-5 8A1.012 1.012 0 0 0 1 9v1h3v5c.004 1.004 1.316 1.379 1.848.531l5-8C10.953 7.36 11 7.176 11 7H8V1c0-.563-.465-1.016-1.031-1zm0 0"/></g></svg>
